X:2933
T:V\"armlandsvisan
T:Ack, V\"armeland du sk\"ona
C:anon.
O:Sweden
A:V\"armland
Z:Transcribed by Frank Nordberg - http://www.musicaviva.com
F:http://abc.musicaviva.com/tunes/sweden/varmlandsvisan.abc
M:2/4
L:1/8
Q:1/4=74
K:Em
B,|E>F GA|B2^df|(fe) e=d|B2zB|
w:Ack, V\"ar-me-land du sk\"o-na, du h\"ar--li-ga land! Du
w:Ja, kom-me jag \"an mitt i det f\"or-lo-va-de land! Till
A2cB|GG BA|(F>G)E2-|E2 z:|
w:kro-na f\"or Sve-a-ri-kets l\"an--der._
w:V\"arm-land jag \"an-d\aa \aa-ter-v\"an--der._
F|G2GB|(B>A) AF|(G>F) GE|F2 z B,|
w:Ja, d\"ar vill jag le--va, ja d\"ar_ vill jag d\"o, om
E>F GA|B2^df|fe e=d|B2zB|
w:en-g\aang i-fr\aan V\"arm-land jag ta-ger mig en m\"o, s\aa
A2cB|GG BA|(F>G)E2-|E2 z|]
w:vet jag att al-drig jag mig \aang--rar._
W:
W:Ack, V\"armeland du sk\"ona, du h\"arliga land!
W:Du krona f\"or Svearikets l\"ander.
W:Ja, komme jag \"an mitt i det f\"orlovade land! 
W:Till V\"armland jag \"and\aa \aaterv\"ander.
W:Ja, d\"ar vill jag leva, ja d\"ar vill jag d\"o,
W:om eng\aang ifr\aan V\"armland jag tager mig en m\"o,
W:s\aa vet jag att aldrig jag mig \aangrar.
W:
W:Ja, n\"ar jag eng\aang skall bort og och gifta dig, min v\"an,
W:d\aa skall du til V\"armelan fara,
W:d\"ar finnes nog Guds g\aavor med flickor kvar igen,
W:och alla \"a' de pr\"aktiga och rara.
W:Men friar du d\"ar, s\aa var munter och glad!
W:ty muntra gossar vilja V\"armlandsflickorna ha,
W:de sorgsna dem ge p\aa b\aaten.
W:
W:
W:  From Musica Viva - http://www.musicaviva.com
W:  the Internet center for free sheet music downloads.
